packages/ui/src/lib/icons/svg/text-contain.svg

<svg width="100%" height="100%" viewBox="0 0 16 16" fill="none" xmlns="http://www.w3.org/2000/svg">
<path d="M5.30769 3L2 3L2 13H5.30769M10.6923 3L14 3V13H10.6923" stroke="currentColor" stroke-width="1.5"/>
<path d="M5 6.5H11M5 9.5H11" stroke="currentColor" stroke-width="1.5"/>
</svg>

<svg xmlns="http://www.w3.org/2000/svg" fill="none" viewBox="0 0 16 16" width="100%" height="100%"><path stroke="currentColor" stroke-width="1.5" d="M5.308 3H2v10h3.308m5.384-10H14v10h-3.308M5 6.5h6m-6 3h6"/></svg>
